X: 19350
T: Jack Robinson
R: polka
M: 2/4
K: Gmajor
|:E/|DG D/G/B|cA A2|F/G/A F/G/A|G/B/d/e/ d2|
e/d/c/e/ dB|c/B/A/B/ AG|DG F/G/A/B/|1 AG G z/:|2 AG G||
|:B/c/|dB c/d/e|eA AB/c/|dB c/d/e|e/d/c/B/ A/c/B/A/|
G/A/B/c/ dB|c/B/A/B/ AG|DG F/G/A/B/|1 AG G:|2 AG G z/||

